X:1
T:Little Children, 76.76
T:Little Children, 76.76
T:C. E. Macniven, before 1940
T:Courtesy of the Cyber Hymnal™
C:C. E. Macniven, before 1940
Z:Courtesy of the Cyber Hymnal™
%%score ( 1 2 ) ( 3 4 )
L:1/8
Q:1/4=115
M:6/8
K:E
V:1 treble 
V:2 treble 
V:3 bass 
V:4 bass 
V:1
 E2 E EDE | [DF]2 [EG] [FB]3 x | [EAe]2 e d2 B x | [EAc]3 [EGc]3 | B2 c B2 G | FEF [^B,DG]3 | %6
 G2 G [CF]2 [A,C] | [CE]3 [B,E]3 |] %8
V:2
 B,3 C3 | x7 | x2 [EG]2 [EG]3 | x6 | [DG]3 E3 | C2 C2 x2 | [B,E]3 x3 | x6 |] %8
V:3
 [E,G,]3 [C,G,]3 | B,3 E, B,3 | [C,C]2 C B,2 G, x | A,2 B, C3 | G,3 G,2 B, | %5
 [A,,A,]2 [A,,A,] [G,,G,]3 | E,>F,G, A,2 F, | [E,A,]3 [E,G,]3 |] %8
V:4
 x6 | B,,2 D,2 E, x2 | x7 | x6 | x3 E,3 | x6 | x6 | x6 |] %8

